icons/glyphs/glyph-lastpass.svg

<?xml version="1.0" encoding="UTF-8" standalone="no"?><svg height="16" viewBox="0 0 4.2333332 4.2333332" width="16" xmlns="http://www.w3.org/2000/svg"><sodipodi:namedview/><metadata><rdf:RDF><cc:Work><dc:format>image/svg+xml</dc:format><dc:type/><dc:title/></cc:Work></rdf:RDF></metadata><path d="m2.1166666 0c-1.17263331 0-2.1166666.9440333-2.1166666 2.1166666s.94403329 2.1166666 2.1166666 2.1166666c1.1726333 0 2.1166666-.9440333 2.1166666-2.1166666s-.9440333-2.1166666-2.1166666-2.1166666zm-.3600814.8580355.3600814.6236311.3600814-.6236311.5498372.3175-.3600814.6236311h.7201628v.635h-.7201628l.3600814.6236312-.5498372.3174999-.3600814-.6236311-.3600814.6236311-.5498371-.3174999.3600814-.6236312h-.72016281v-.635h.72016281l-.3600814-.6236311z" fill="#d0d0d0" stroke-width=".264583"/></svg>

<?xml version="1.0" encoding="UTF-8" standalone="no"?>
<!-- Created with Inkscape (http://www.inkscape.org/) -->

<svg
   xmlns:dc="http://purl.org/dc/elements/1.1/"
   xmlns:cc="http://creativecommons.org/ns#"
   xmlns:rdf="http://www.w3.org/1999/02/22-rdf-syntax-ns#"
   xmlns:svg="http://www.w3.org/2000/svg"
   xmlns="http://www.w3.org/2000/svg"
   xmlns:sodipodi="http://sodipodi.sourceforge.net/DTD/sodipodi-0.dtd"
   xmlns:inkscape="http://www.inkscape.org/namespaces/inkscape"
   width="16"
   height="16"
   viewBox="0 0 4.2333332 4.2333332"
   version="1.1"
   id="svg8"
   inkscape:version="0.92+devel (b8837397f6, 2017-07-27, custom)"
   sodipodi:docname="glyph-lastpass.svg">
  <defs
     id="defs2" />
  <sodipodi:namedview
     id="base"
     pagecolor="#002466"
     bordercolor="#ffffff"
     borderopacity="0.38039216"
     inkscape:pageopacity="1"
     inkscape:pageshadow="2"
     inkscape:zoom="36.415999"
     inkscape:cx="10.094581"
     inkscape:cy="7.9162778"
     inkscape:document-units="px"
     inkscape:current-layer="svg8"
     inkscape:document-rotation="0"
     showgrid="false"
     inkscape:showpageshadow="false"
     borderlayer="true"
     inkscape:window-width="1920"
     inkscape:window-height="1051"
     inkscape:window-x="0"
     inkscape:window-y="0"
     inkscape:window-maximized="1"
     units="px" />
  <metadata
     id="metadata5">
    <rdf:RDF>
      <cc:Work
         rdf:about="">
        <dc:format>image/svg+xml</dc:format>
        <dc:type
           rdf:resource="http://purl.org/dc/dcmitype/StillImage" />
        <dc:title></dc:title>
      </cc:Work>
    </rdf:RDF>
  </metadata>
  <path
     inkscape:connector-curvature="0"
     style="fill:#d0d0d0;fill-opacity:1;stroke-width:0.26458332"
     d="M 2.1166666,0 C 0.94403329,0 0,0.9440333 0,2.1166666 c 0,1.1726333 0.94403329,2.1166666 2.1166666,2.1166666 1.1726333,0 2.1166666,-0.9440333 2.1166666,-2.1166666 C 4.2333332,0.9440333 3.2892999,0 2.1166666,0 Z M 1.7565852,0.8580355 2.1166666,1.4816666 2.476748,0.8580355 l 0.5498372,0.3175 -0.3600814,0.6236311 h 0.7201628 v 0.635 H 2.6665038 L 3.0265852,3.0577978 2.476748,3.3752977 2.1166666,2.7516666 1.7565852,3.3752977 1.2067481,3.0577978 1.5668295,2.4341666 H 0.84666669 v -0.635 H 1.5668295 L 1.2067481,1.1755355 Z"
     id="rect23"
     inkscape:label="#" />
</svg>
